X: 100301
T: CRAIGMILLAR CASTLE STRATHSPEY
C: By W.C. Paton, Edinburgh
R: strathspey
B: K\"ohler's Violin Repository, v.3, 1885 p.218 #1
F: http://www.archive.org/details/klersviolinrepos03rugg
Z: 2012 John Chambers <jc:trillian.mit.edu>
M: C|
L: 1/8
K: Gm
|:\
("_>".G>.A) (B>c) d<uB uG2 | ("_>".F>.G) (A>B) c<f f>D |\
("_>".G>.A) (B>c) d<uB uG2 | (.d>.e) (d>c) B<uG uG2 :|
(.g>.a) (b>a) g<u^f ug2 | (.=f>.g) (a>f) c<f A<f |\
(.g>.a) (b>a) g<u^f ug2 | (.d>.e) (d>c) B<G G>d |
(.g>.a) (b>a) g<u^f ug2 | (.=f>.g) (a>f) c<f A<f |\
(3gab (3fdB (3cde (3cBA | (3Bd!diminuendo(!f (3bfd (3cd!diminuendo)!B "_Segue Reel."(3A^FD "^D.C."|]

%%sep 2 1 500

